X:1
T:James Gibb editions
T:Psalm 74 (Becker) - Schütz
%%score [ ( 1 2 ) ( 3 4 ) ]
L:1/8
Q:1/4=100
M:2/2
K:C
V:1 treble nm="Soprano Alto"
V:2 treble 
V:3 bass nm="Tenor Bass"
V:4 bass 
V:1
"^Cornelius Becker\n(1561-1604)""^Psalm 74, SWV 171""^Heinrich Schütz\n(1585-1672)" B4 d4 | %1
w: ~Wa- rum|
w: bist grim-|
 e2 B4 d2 | G2 A2 B4 | d4 e4 | d2 c4 A2 | (G2 A4) ^G2 | A8 :|[M:2/2] B4 c4 | A2 G4 G2 | A2 B2 c4 | %10
w: ver- stößt du|uns so gar,|ach Gott,|ohn all Barm-|her\- * zig-|keit,|Ge- denk|doch an die|lie- be G'mein,|
w: mig, zor- nig|im- mer- dar|ü- ber|die Schäf- lein|dei\- * ner|Weid?||||
 c4 B4 | d2 c4 B2 | A2 A2 ^G4 | !courtesy!=G4 A2 A2 | (B3 A G2) ^F2 | A2 G2 ^F4 | B4 A2 G2 | %17
w: die du|er- wor- ben|hast vor- längst|und sie er-|löst * * zum|Erb- teil dein,|ge- denk an|
w: |||||||
 (d3 c B2) A2 | G4 ^F4 | E8 |] %20
w: Zi\- * * on,|da du|wohnst.|
w: |||
V:2
 G4 G4 | G2 G4 G2 | G2 ^F2 G4 | G4 G4 | G2 E4 =F2 | E4 E4 | E8 :|[M:2/2] E4 E4 | D2 E4 E2 | %9
 C2 G2 G4 | G4 G4 | A2 A4 G2 | F2 F2 E4 | E4 E2 ^F2 | (!courtesy!=G3 F/E/ D2) D2 | E2 E2 ^D4 | %16
 G4 ^F2 E2 | (D2 E^F G2) !courtesy!^F2- | F2 E4 ^D2 | E8 |] %20
V:3
 E4 D4 | C2 D4 D2 | E2 C2 D4 | B,4 C4 | B,2 A,4 C2 | C4 B,4 | A,8 :|[M:2/2] ^G,4 A,4 | A,2 B,4 C2 | %9
 A,2 D2 E4 | E4 D4 | F2 E4 E2 | C2 D2 B,4 | %13
"^4. Wir sehn nicht mehr die Zeichen groß, und kein Prophet uns predigt mehr,\nKirchen und Schul'n stehn öd und bloß, man lehrt nicht mehr gesunde Lehr.\nAch, Gott, wie lang soll währen noch die Schmach, so uns wird angetan,\nsoll denn der Feind stets fahren hoch, zu lästern deinen werten Nam'n?\n\n5. Zeuch doch von uns dein Hand nicht ab, verlaß ja nicht die liebe G'mein,\nin deinem Schoß ihr Ruh sie hab, unter dem Schutz der Rechten dein,\nmein König und mein Herre Gott, das ist dein Nam'n von Alters her,\ndu bist, der alle Hülfe tut, die uns geschieht auf dieser Erd.\n\n7. Dein ist, Herr, beides Tag und Nacht, du machst, daß Sonn und alle Stern\nstets haben ihren Lauf in acht und geben Zeichen nah und fern,\nden Landen Grenzen überall, Sommers und Winters Unterschied\ndein göttlich Macht schafft allzumal, denn du regierest alle Zeit." B,4 ^C2 D2 | %14
 (D3 C B,2) A,2 | C2 B,2 B,4 | D4 D2 B,2 | (B,3 C D2) D2 | B,4 B,4 | B,8 |] %20
V:4
 E,4 B,,4 | C,2 G,4 B,2 | C2 A,2 G,4 | G,4 C,4 | G,2 A,4 F,2 | (C,3 D,) E,4 | A,,8 :| %7
[M:2/2] E,4 A,4 | F,2 E,4 C,2 | F,2 G,2 C,4 | C,4 G,4 | D,2 A,4 E,2 | F,2 D,2 E,4 | E,4 A,2 D,2 | %14
 G,6 D,2 | A,,2 E,2 B,,4 | G,4 D,2 E,2 | (B,,3 A,, G,,2) D,2 | E,4 B,,4 | E,8 |] %20

